resources/icons/20px/at.svg

<svg xmlns="http://www.w3.org/2000/svg" viewBox="0 0 20 20">
  <path d="M12.298 6.818a6.5 6.5 0 0 0-1.672-.207q-1.586 0-2.472 1.036-.884 1.037-.884 2.817 0 2.842 2.266 2.842 2.39 0 2.614-3.574zm6.544-2.592Q20 6.256 20 8.916q0 1.743-.556 3.189c-.374.963-.894 1.713-1.569 2.25a3.64 3.64 0 0 1-2.333.803q-.978 0-1.696-.512a2.5 2.5 0 0 1-.967-1.39h-.148q-.607.952-1.498 1.427-.893.476-2.007.475-2.019.001-3.175-1.279-1.16-1.28-1.159-3.463 0-2.514 1.537-4.08 1.532-1.566 4.122-1.567.941 0 2.086.164 1.146.165 2.037.458l-.272 5.67v.294q0 1.95 1.289 1.951.977 0 1.553-1.245.576-1.244.577-3.171-.001-2.085-.868-3.664a5.95 5.95 0 0 0-2.463-2.433q-1.597-.853-3.667-.853-2.636 0-4.588 1.072a7.2 7.2 0 0 0-2.978 3.069Q2.229 8.073 2.23 10.708q0 3.538 1.92 5.438 1.918 1.904 5.509 1.902 2.739 0 5.71-1.096v2.001Q12.769 20 9.709 20q-4.584 0-7.144-2.432Q0 15.134 0 10.781q0-3.183 1.388-5.665 1.386-2.48 3.845-3.798Q7.691.001 10.799 0q2.688 0 4.786 1.098a7.87 7.87 0 0 1 3.257 3.128"/>
</svg>

<svg width="20" height="20" viewBox="0 0 20 20" fill="none" xmlns="http://www.w3.org/2000/svg">
<path fill-rule="evenodd" clip-rule="evenodd" d="M12.298 6.818C11.777 6.68 11.22 6.611 10.626 6.611C9.569 6.611 8.745 6.956 8.154 7.647C7.565 8.338 7.27 9.277 7.27 10.464C7.27 12.358 8.025 13.306 9.536 13.306C11.129 13.306 12 12.114 12.15 9.732L12.298 6.818ZM18.842 4.226C19.614 5.58 20 7.142 20 8.916C20 10.079 19.814 11.14 19.444 12.105C19.07 13.068 18.55 13.818 17.875 14.355C17.203 14.89 16.425 15.158 15.542 15.158C14.891 15.158 14.324 14.988 13.846 14.646C13.367 14.305 13.045 13.841 12.879 13.256H12.731C12.326 13.891 11.827 14.366 11.233 14.683C10.637 15.001 9.969 15.158 9.226 15.158C7.881 15.158 6.821 14.733 6.051 13.879C5.277 13.025 4.892 11.871 4.892 10.416C4.892 8.74 5.404 7.38 6.429 6.336C7.45 5.293 8.825 4.769 10.551 4.769C11.179 4.769 11.873 4.824 12.637 4.933C13.401 5.043 14.08 5.195 14.674 5.391L14.402 11.061V11.355C14.402 12.655 14.832 13.306 15.691 13.306C16.343 13.306 16.86 12.892 17.244 12.061C17.628 11.232 17.821 10.175 17.821 8.89C17.821 7.5 17.53 6.279 16.953 5.226C16.376 4.173 15.555 3.363 14.49 2.793C13.425 2.224 12.203 1.94 10.823 1.94C9.066 1.94 7.536 2.297 6.235 3.012C4.935 3.728 3.943 4.752 3.257 6.081C2.571 7.408 2.23 8.953 2.23 10.708C2.23 13.066 2.869 14.88 4.15 16.146C5.429 17.416 7.265 18.048 9.659 18.048C11.485 18.048 13.388 17.683 15.369 16.952V18.953C13.635 19.651 11.749 20 9.709 20C6.653 20 4.272 19.189 2.565 17.568C0.855 15.945 0 13.683 0 10.781C0 8.659 0.462 6.77 1.388 5.116C2.311 3.463 3.594 2.197 5.233 1.318C6.871 0.44 8.727 0 10.799 0C12.59 0 14.187 0.367 15.585 1.098C16.985 1.83 18.07 2.873 18.842 4.226V4.226Z" fill="black"/>
</svg>
